markets/ETHBTC.svg

<svg width="42" height="42" viewBox="0 0 42 42" fill="none" xmlns="http://www.w3.org/2000/svg">
<path d="M0 21C0 32.598 9.40202 42 21 42V0C9.40202 0 0 9.40202 0 21Z" fill="#627EEA"/>
<path d="M21 42C32.598 42 42 32.598 42 21C42 9.40202 32.598 0 21 0V42Z" fill="#F7931A"/>
<path d="M36.9769 17.29C36.7793 15.1742 34.9496 14.4623 32.6391 14.2565L32.6471 11.3215L30.8571 11.3196L30.8486 14.1773C30.3781 14.1759 29.8978 14.1851 29.4184 14.194L29.4275 11.3176L27.6373 11.3148L27.629 14.2488C27.2413 14.2558 26.86 14.2633 26.4889 14.262L26.4887 14.2527L24.0188 14.2485L24.0137 16.1562C24.0137 16.1562 25.3367 16.133 25.3147 16.157C26.04 16.1586 26.2743 16.5788 26.3423 16.9421L26.3336 20.2853C26.3833 20.2854 26.4482 20.2879 26.523 20.2973L26.3335 20.2977L26.3205 24.9814C26.2875 25.2085 26.1525 25.5713 25.6451 25.5717C25.6687 25.5917 24.344 25.5699 24.344 25.5699L23.9822 27.7021L26.3132 27.7056C26.7464 27.707 27.173 27.7152 27.5911 27.7183L27.5839 30.6861L29.373 30.6882L29.381 27.7532C29.8722 27.763 30.3476 27.7674 30.8118 27.7684L30.8028 30.6912L32.5928 30.6931L32.6014 27.731C35.613 27.5633 37.7217 26.8099 37.9912 23.99C38.2091 21.7198 37.1411 20.7041 35.4332 20.2926C36.4736 19.767 37.1245 18.8389 36.9769 17.29V17.29ZM34.4534 23.633C34.4495 25.8513 30.642 25.593 29.4281 25.5923L29.4403 21.6597C30.6547 21.6622 34.4608 21.3198 34.4534 23.633ZM33.6363 18.0834C33.6307 20.1018 30.456 19.8606 29.4459 19.8592L29.4556 16.2937C30.4657 16.2951 33.6423 15.9781 33.6363 18.0834Z" fill="white"/>
<path d="M10.9272 11.4131V18.4648L16.8873 21.128L10.9272 11.4131Z" fill="white" fill-opacity="0.602"/>
<path d="M10.9272 11.4131L4.96625 21.128L10.9272 18.4648V11.4131Z" fill="white"/>
<path d="M10.9272 25.6976V30.4891L16.8913 22.2378L10.9272 25.6976Z" fill="white" fill-opacity="0.602"/>
<path d="M10.9272 30.4891V25.6968L4.96625 22.2378L10.9272 30.4891Z" fill="white"/>
<path d="M10.9272 24.5886L16.8873 21.128L10.9272 18.4663V24.5886Z" fill="white" fill-opacity="0.2"/>
<path d="M4.96625 21.128L10.9272 24.5886V18.4663L4.96625 21.128Z" fill="white" fill-opacity="0.602"/>
</svg>

<svg xmlns="http://www.w3.org/2000/svg" width="42" height="42" fill="none"><path fill="#627EEA" d="M0 21c0 11.598 9.402 21 21 21V0C9.402 0 0 9.402 0 21Z"/><path fill="#F7931A" d="M21 42c11.598 0 21-9.402 21-21S32.598 0 21 0v42Z"/><path fill="#fff" d="M36.977 17.29c-.198-2.116-2.027-2.828-4.338-3.033l.008-2.935-1.79-.002-.008 2.857c-.47-.001-.951.008-1.43.017l.008-2.876-1.79-.003-.008 2.934c-.388.007-.769.014-1.14.013v-.01l-2.47-.004-.005 1.908s1.323-.023 1.3.001c.726.002.96.422 1.028.785l-.008 3.343c.05 0 .114.003.189.012h-.19l-.012 4.684c-.034.227-.169.59-.676.59.024.02-1.301-.001-1.301-.001l-.362 2.132 2.331.004c.433.001.86.01 1.278.012l-.007 2.968 1.789.002.008-2.935c.491.01.967.014 1.43.015l-.008 2.923 1.79.002.008-2.962c3.012-.168 5.12-.921 5.39-3.741.218-2.27-.85-3.286-2.558-3.697 1.04-.526 1.691-1.454 1.544-3.003Zm-2.524 6.343c-.004 2.218-3.811 1.96-5.025 1.96l.012-3.933c1.215.002 5.02-.34 5.013 1.973Zm-.817-5.55c-.005 2.019-3.18 1.778-4.19 1.776l.01-3.565c1.01.001 4.186-.316 4.18 1.79Z"/><path fill="#fff" fill-opacity=".602" d="M10.927 11.413v7.052l5.96 2.663-5.96-9.715Z"/><path fill="#fff" d="m10.927 11.413-5.96 9.715 5.96-2.663v-7.052Z"/><path fill="#fff" fill-opacity=".602" d="M10.927 25.698v4.791l5.964-8.251-5.964 3.46Z"/><path fill="#fff" d="M10.927 30.49v-4.793l-5.96-3.46 5.96 8.252Z"/><path fill="#fff" fill-opacity=".2" d="m10.927 24.589 5.96-3.461-5.96-2.662v6.123Z"/><path fill="#fff" fill-opacity=".602" d="m4.966 21.128 5.961 3.46v-6.122l-5.96 2.662Z"/></svg>
